app/dist/common/images/resources-connection.svg

<svg height="18" viewBox="0 0 18 18" width="18" xmlns="http://www.w3.org/2000/svg"><path d="m0 0h18v18h-18z" fill="#f0f3fa"/><path d="m4.62 9c.45 0 .88-.4.88-.8s-.43-.7-.87-.7h-.63v1.5zm-1.6-1.5h-.52v-.5h2.24c.89 0 1.76.45 1.76 1.2 0 .72-.85 1.02-1.06 1.06.1.04.19.12.24.21l.47.77c.08.12.2.26.35.26h.09l-.01.5h-.47c-.36 0-.52-.04-.67-.3l-.62-1c-.1-.16-.21-.2-.46-.2h-.36v1.5h-.98zm10.48 1.5c.54 0 .5-.5.5-.7 0-.3 0-.8-.5-.8h-.5v1.5zm-1.5-1.5h-.5v-.5h2c.97 0 1.5.52 1.5 1.3s-.53 1.2-1.5 1.2h-.5v1.5h-1zm-1.4 1.5h-1.1v.5h.37c.13 0 .13.2.13.2v.3c-.29.26-.6.5-1 .5-.76 0-1-.65-1-1.5 0-.78.45-1.34 1.19-1.34.4 0 .78.12 1.09.34l.44-.51s-.5-.49-1.55-.49a2.12 2.12 0 0 0 -2.17 2c0 1.25.88 2 2 2 .45 0 .66-.04 1-.3v.3h1v-1.65c0-.25-.11-.35-.4-.35z" fill="#c8102e"/></svg>

<!-- by TradingView --><svg width="18" height="18" viewBox="0 0 18 18" xmlns="http://www.w3.org/2000/svg"><path fill="#F0F3FA" d="M0 0h18v18H0z"/><path d="M4.62 9c.45 0 .88-.4.88-.8s-.43-.7-.87-.7H4V9h.62Zm-1.6-1.5H2.5V7h2.24c.89 0 1.76.45 1.76 1.2 0 .72-.85 1.02-1.06 1.06.1.04.19.12.24.21l.47.77c.08.12.2.26.35.26h.09l-.01.5h-.47c-.36 0-.52-.04-.67-.3l-.62-1c-.1-.16-.21-.2-.46-.2H4V11h-.98V7.5ZM13.5 9c.54 0 .5-.5.5-.7 0-.3 0-.8-.5-.8H13V9h.5ZM12 7.5h-.5V7h2c.97 0 1.5.52 1.5 1.3s-.53 1.2-1.5 1.2H13V11h-1V7.5ZM10.6 9H9.5v.5h.37c.13 0 .13.2.13.2v.3c-.29.26-.6.5-1 .5-.76 0-1-.65-1-1.5 0-.78.45-1.34 1.19-1.34.4 0 .78.12 1.09.34l.44-.51S10.22 7 9.17 7A2.12 2.12 0 0 0 7 9c0 1.25.88 2 2 2 .45 0 .66-.04 1-.3v.3h1V9.35c0-.25-.11-.35-.4-.35Z" fill="#C8102E"/></svg>
